public/assets/img/dollar.svg

<svg width="36" height="36" viewBox="0 0 36 36" fill="none" xmlns="http://www.w3.org/2000/svg">
<rect x="3" y="3" width="30" height="30" rx="15" fill="#00FFAA"/>
<mask id="mask0_1746_2416" style="mask-type:alpha" maskUnits="userSpaceOnUse" x="3" y="3" width="30" height="30">
<rect x="3" y="3" width="30" height="30" rx="15" fill="white"/>
</mask>
<g mask="url(#mask0_1746_2416)">
<path d="M19.4355 10.32C20.7955 10.6 21.8455 11.16 22.5855 12C23.3255 12.84 23.6955 13.84 23.6955 15V15.42H20.2755V15C20.2755 14.76 20.2055 14.53 20.0655 14.31C19.9455 14.07 19.7355 13.87 19.4355 13.71V16.41C22.5155 16.83 24.0555 18.3 24.0555 20.82V21C24.0555 22.34 23.6455 23.43 22.8255 24.27C22.0255 25.11 20.8955 25.62 19.4355 25.8V27.66H16.5555V25.71C15.7355 25.57 15.0355 25.34 14.4555 25.02C13.8755 24.68 13.3955 24.28 13.0155 23.82C12.6555 23.36 12.3855 22.85 12.2055 22.29C12.0255 21.71 11.9355 21.12 11.9355 20.52V19.92H15.3555V20.34C15.3555 20.8 15.4455 21.2 15.6255 21.54C15.8055 21.88 16.1155 22.15 16.5555 22.35V19.11C15.1755 18.87 14.0855 18.42 13.2855 17.76C12.5055 17.1 12.1155 16.14 12.1155 14.88V14.7C12.1155 14.02 12.2355 13.43 12.4755 12.93C12.7155 12.41 13.0355 11.97 13.4355 11.61C13.8355 11.23 14.3055 10.93 14.8455 10.71C15.3855 10.49 15.9555 10.33 16.5555 10.23V8.34H19.4355V10.32ZM20.6355 21.06C20.6355 20.76 20.5655 20.49 20.4255 20.25C20.2855 19.99 19.9555 19.78 19.4355 19.62V22.47C19.8955 22.33 20.2055 22.13 20.3655 21.87C20.5455 21.61 20.6355 21.34 20.6355 21.06ZM15.5355 14.7C15.5355 14.98 15.5955 15.22 15.7155 15.42C15.8355 15.6 16.1155 15.77 16.5555 15.93V13.56C16.1955 13.68 15.9355 13.85 15.7755 14.07C15.6155 14.27 15.5355 14.48 15.5355 14.7Z" fill="white"/>
</g>
</svg>

<svg width="36" height="36" fill="none" xmlns="http://www.w3.org/2000/svg"><rect x="3" y="3" width="30" height="30" rx="15" fill="#0FA"/><mask id="a" style="mask-type:alpha" maskUnits="userSpaceOnUse" x="3" y="3" width="30" height="30"><rect x="3" y="3" width="30" height="30" rx="15" fill="#fff"/></mask><g mask="url(#a)"><path d="M19.436 10.32c1.36.28 2.41.84 3.15 1.68.74.84 1.11 1.84 1.11 3v.42h-3.42V15c0-.24-.07-.47-.21-.69-.12-.24-.33-.44-.63-.6v2.7c3.08.42 4.62 1.89 4.62 4.41V21c0 1.34-.41 2.43-1.23 3.27-.8.84-1.93 1.35-3.39 1.53v1.86h-2.88v-1.95c-.82-.14-1.52-.37-2.1-.69-.58-.34-1.06-.74-1.44-1.2-.36-.46-.63-.97-.81-1.53a5.94 5.94 0 0 1-.27-1.77v-.6h3.42v.42c0 .46.09.86.27 1.2.18.34.49.61.93.81v-3.24c-1.38-.24-2.47-.69-3.27-1.35-.78-.66-1.17-1.62-1.17-2.88v-.18c0-.68.12-1.27.36-1.77.24-.52.56-.96.96-1.32.4-.38.87-.68 1.41-.9.54-.22 1.11-.38 1.71-.48V8.34h2.88v1.98Zm1.2 10.74c0-.3-.07-.57-.21-.81-.14-.26-.47-.47-.99-.63v2.85c.46-.14.77-.34.93-.6.18-.26.27-.53.27-.81Zm-5.1-6.36c0 .28.06.52.18.72.12.18.4.35.84.51v-2.37c-.36.12-.62.29-.78.51-.16.2-.24.41-.24.63Z" fill="#fff"/></g></svg>
